X:50
T: Graf und Nonne (Die Nonne)
N: Q0155w
O: Mitteleuropa, Deutschland
R: Ballade, Standesunterschied, vergebliche Werbung, Liebe, Klage
M: 2/4
L: 1/16
K: G
_Bc | d3c_B2A2 | G2_Bcd2
d2 | _e2e2ccc2 | d4z2
d2 | d3_e=f2d2 | c2_Bcd2
c2 | _B3cd2B2 | A2GA_B2
d2 | g2_B2cdBA | G4
d4 | g2_B2cdBA | G4z2

@@@ Tune index: 1760
